src/Icon/svgs/web.svg

<svg width="24" height="24" viewBox="0 0 24 24" fill="none" xmlns="http://www.w3.org/2000/svg">
<path fill-rule="evenodd" clip-rule="evenodd" d="M4.0542 13C4.25397 14.7916 5.00757 16.3213 6.34314 17.6569C7.23192 18.5456 8.20665 19.1767 9.28732 19.5583C9.1279 19.4245 8.96755 19.2809 8.80735 19.1271C7.24705 17.6287 6.2418 15.5973 6.03826 13H4.0542ZM4.0542 11H6.03875C6.24341 8.40569 7.2483 6.37636 8.80735 4.87917C8.97186 4.72118 9.13653 4.574 9.30019 4.43716C8.21438 4.81831 7.23545 5.45084 6.34315 6.34314C5.00757 7.67872 4.25397 9.20837 4.0542 11ZM11 11V5.6566C10.7246 5.85 10.4535 6.0712 10.1927 6.32171C9.01084 7.45663 8.23666 8.98327 8.04599 11H11ZM11 13H8.0454C8.23506 15.0198 9.00962 16.5484 10.1927 17.6845C10.4535 17.935 10.7246 18.1562 11 18.3497V13ZM19.9458 13H17.9617C17.7582 15.5973 16.753 17.6287 15.1927 19.1271C15.0325 19.2809 14.8721 19.4245 14.7127 19.5583C15.7934 19.1767 16.7681 18.5456 17.6569 17.6569C18.9924 16.3213 19.746 14.7916 19.9458 13ZM19.9458 11C19.746 9.20837 18.9924 7.67872 17.6569 6.34315C16.7645 5.45084 15.7856 4.81831 14.6998 4.43716C14.8635 4.574 15.0281 4.72118 15.1927 4.87917C16.7517 6.37636 17.7566 8.40569 17.9612 11H19.9458ZM13 11H15.954C15.7633 8.98327 14.9892 7.45663 13.8073 6.32171C13.5465 6.0712 13.2754 5.85 13 5.65659V11ZM13 13V18.3497C13.2754 18.1562 13.5465 17.935 13.8073 17.6845C14.9904 16.5484 15.7649 15.0198 15.9546 13H13ZM21.9557 13C21.7452 15.3348 20.7837 17.3585 19.0711 19.0711C17.3585 20.7837 15.3348 21.7452 13 21.9557V22.0062H11V21.9557C8.66522 21.7452 6.64153 20.7837 4.92893 19.0711C3.21633 17.3585 2.25478 15.3348 2.04426 13H2V12.0017C2 12.0011 2 12.0006 2 12C2 11.9994 2 11.9989 2 11.9983V11H2.04426C2.25478 8.66522 3.21633 6.64153 4.92893 4.92893C6.64153 3.21633 8.66522 2.25478 11 2.04426V2H13V2.04426C15.3348 2.25478 17.3585 3.21633 19.0711 4.92893C20.7837 6.64153 21.7452 8.66522 21.9557 11H22V13H21.9557Z" fill="#1B1C1D"/>
</svg>

<svg xmlns="http://www.w3.org/2000/svg" width="24" height="24" fill="none"  xmlns:v="https://vecta.io/nano"><path fill-rule="evenodd" d="M4.054 13c.2 1.792.953 3.321 2.289 4.657.889.889 1.864 1.52 2.944 1.901l-.48-.431c-1.56-1.498-2.566-3.53-2.769-6.127H4.054zm0-2h1.985c.205-2.594 1.21-4.624 2.769-6.121l.493-.442c-1.086.381-2.065 1.014-2.957 1.906C5.008 7.679 4.254 9.208 4.054 11zM11 11V5.657a6.84 6.84 0 0 0-.807.665C9.011 7.457 8.237 8.983 8.046 11H11zm0 2H8.045c.19 2.02.964 3.548 2.147 4.685a6.9 6.9 0 0 0 .807.665V13zm8.946 0h-1.984c-.204 2.597-1.209 4.629-2.769 6.127l-.48.431c1.081-.382 2.055-1.013 2.944-1.901 1.335-1.336 2.089-2.865 2.289-4.657zm0-2c-.2-1.792-.953-3.321-2.289-4.657-.892-.892-1.871-1.525-2.957-1.906l.493.442c1.559 1.497 2.564 3.527 2.769 6.121h1.985zM13 11h2.954c-.191-2.017-.965-3.543-2.147-4.678A6.8 6.8 0 0 0 13 5.657V11zm0 2v5.35c.275-.194.547-.415.807-.665 1.183-1.136 1.958-2.665 2.147-4.684H13zm8.956 0c-.21 2.335-1.172 4.358-2.885 6.071S15.335 21.745 13 21.956v.05h-2v-.05c-2.335-.21-4.358-1.172-6.071-2.885S2.255 15.335 2.044 13H2v-.998V11h.044c.211-2.335 1.172-4.358 2.885-6.071S8.665 2.255 11 2.044V2h2v.044c2.335.211 4.358 1.172 6.071 2.885S21.745 8.665 21.956 11H22v2h-.044z" fill="#1b1c1d"/></svg>
